X:1
T:Title
%%score { ( 1 4 ) | ( 2 3 ) }
L:1/8
Q:1/4=144
M:3/4
K:C
V:1 treble nm="Grand Piano"
V:4 treble 
V:2 treble 
V:3 treble 
V:1
 G4 A2 | G4 c2 | d2 e2 f2 | e4 z2 | c4 B2 | d2 c2 A2 | G4 z2 | G4 z2 | G2 A2 B2 | c4 z2 | %10
w: J.~W.~Lerman *||||||||||
 c2 f2 e2 | e4 d2 | e2 c2 A2 | A2 G2 d2 | c4 z2 | c4 z2 | B2 A2 B2 | c4 z2 | f4 z2 | e4 z2 | %20
w: ||||||||||
 c2 [ce]2 d2 | c2 d2 c2 | B2 G2 A2 | G6 | G4 A2 | G4 c2 | d2 e2 f2 | e4 z2 | c4 A2 | A2 G2 A2 | %30
w: ||||||||||
 B4 d2 | c6 |] %32
w: ||
V:2
 [CE]4 [CF]2 | [CE]4 [EG]2 | B2 z2 z2 | c4 z2 | [FA]4 [F^G]2 | B2 z2 z2 | F2 z2 z2 | [CE]4 z2 | %8
 F4 z2 | [CE]2 D2 [EG]2 | [FA]4 [^Fc]2 | [Gc]4 [GB]2 | z2 [CE]2 [CE]2 | [B,F]4 [EG]2 | %14
 [EG]2 D2 [FA]2 | [EG]4 z2 | ^G2 ^F2 [EG]2 | A4 [EA]2 | [DB]2 C2 [DB]2 | [B,^G]2 C2 [DB]2 | %20
 [EA]2 A,2 [B,B]2 | [CA]2 [B,B]2 [CA]2 | [DG]2 [^CE]2 [=CD]2 | [B,D]2 C2 D2 | [CE]4 [CF]2 | %25
 [CE]4 [EG]2 | B2 c2 [Gd]2 | c4 [EB]2 | [FA]4 C2 | [B,F]4 [CF]2 | [DF]4 [B,FG]2 | [CEG]6 |] %32
V:3
 x6 | x6 | G2- [Gc]2 [Gd]2 | C2 z2 [EB]2 | x6 | F2- [FA]2 [CF]2 | B,4 [DF]2 | x6 | B,2 C2 [DF]2 | %9
 x6 | x6 | x6 | x6 | x6 | x6 | x6 | E4 z2 | A,2 z2 z2 | x6 | x6 | x6 | x6 | x6 | x6 | x6 | x6 | %26
 G4 z2 | C2 z2 z2 | x6 | x6 | x6 | x6 |] %32
V:4
 x6 | x6 | x6 | z2 D2 d2 | x6 | x6 | z2 D2 G2 | x6 | x6 | z2 F2 c2 | x6 | x6 | x6 | x6 | z2 F2 c2 | %15
 x6 | x6 | z2 F2 c2 | z2 A2 f2 | z2 A2 d2 | x6 | x6 | x6 | z2 E2 F2 | x6 | x6 | x6 | z2 D2 d2 | %28
 x6 | x6 | x6 | x6 |] %32

